X:1
T:Agnus Dei, 88.86
T:Agnus Dei, 88.86
T:William Blow, Jr., 1881
T:Public Domain Courtesy of the Cyber Hymnal™
C:William Blow, Jr., 1881
Z:Public Domain
Z:Courtesy of the Cyber Hymnal™
%%score ( 1 2 ) ( 3 4 )
L:1/8
Q:1/4=115
M:3/4
K:E
V:1 treble 
V:2 treble 
V:3 bass 
V:4 bass 
V:1
 [EG]2 [EA]2 [EG]2 | [EF]4 [EF]2 | ([DF]2 [DG]2) [DF]2 | [B,E]6 | [B,E]2 [B,F]2 [EG]2 | %5
 [EA]4 [EG]2 | [Ec]4 [DF]2 | [EB]6 | [EB]2 [DA]2 [EG]2 | [FA]4 [DA]2 | (A2 G2) [DF]2 | E4 E2 | %12
 (G2 F2) C2 | [B,E]4 [B,D]2 | [B,E]6 |] %15
V:2
 x6 | x6 | x6 | x6 | x6 | x6 | x6 | x6 | x6 | x6 | E4 x2 | E4 E2 | C4 C2 | x6 | x6 |] %15
V:3
 [E,B,]2 [E,C]2 [E,B,]2 | [C,^A,]4 [C,A,]2 | (=A,2 B,2) [B,,A,]2 | [E,G,]6 | %4
 [E,G,]2 [D,A,]2 [=D,B,]2 | [C,A,]4 [E,B,]2 | [A,,A,]4 [A,B,]2 | [G,B,]6 | %8
 [G,B,]2 [F,B,]2 [E,B,]2 | [D,B,]4 [B,,B,]2 | [E,B,]4 [B,,A,]2 | [C,G,]4 [G,,B,]2 | %12
 [A,,A,]4 [A,,F,]2 | [B,,G,]4 [B,,F,]2 | [E,G,]6 |] %15
V:4
 x6 | x6 | B,,4 x2 | x6 | x6 | x6 | x6 | x6 | x6 | x6 | x6 | x6 | x6 | x6 | x6 |] %15

